packages/sources/assets/src/assets/bancontact.svg

<svg width="58" height="40" viewBox="0 0 58 40" fill="none" xmlns="http://www.w3.org/2000/svg">
<rect x="0.5" y="0.5" width="57" height="39" rx="3.5" fill="white" stroke="#F3F3F3"/>
<path d="M46.1733 10.7543H32.5633L31.1792 12.3127L26.6875 17.3695V17.3697L25.3034 18.928H11.8733L13.2361 17.3499L13.8811 16.6029L15.2438 15.0248H9.05561C7.92508 15.0248 7 15.9734 7 17.1326V21.5801C7 22.7395 7.92508 23.6881 9.05561 23.6881H32.7469C33.8774 23.6881 35.4217 22.9836 36.1788 22.1225L39.7624 18.0464L46.1733 10.7543Z" fill="#005697"/>
<path d="M48.9078 6C50.0383 6 50.9634 6.94857 50.9634 8.10797V12.5553C50.9634 13.7145 50.0383 14.6632 48.9078 14.6632H42.7398L44.1154 13.097H44.1156L44.7976 12.3204L46.1733 10.7543H32.5635L25.3035 18.934H11.7901L21.4813 7.97611L21.8479 7.56141C22.6076 6.7026 24.154 6 25.2846 6H48.9078V6Z" fill="#FBD500"/>
<path fill-rule="evenodd" clip-rule="evenodd" d="M11.6326 31.2485C11.6326 30.9581 11.5641 30.7068 11.4274 30.4945C11.2905 30.2823 11.1104 30.1204 10.8871 30.0087C11.1104 29.897 11.2835 29.7321 11.4065 29.5143C11.5293 29.2965 11.5907 29.0509 11.5907 28.7773V28.6265C11.5907 28.2912 11.5265 28.0122 11.3982 27.7887C11.2696 27.5653 11.0894 27.3865 10.8577 27.2526C10.626 27.1184 10.348 27.0223 10.0243 26.9635C9.7002 26.9048 9.34011 26.8756 8.9435 26.8756C8.80956 26.8756 8.66987 26.8784 8.52479 26.884C8.37937 26.8895 8.23847 26.8965 8.10174 26.9048C7.96484 26.9132 7.83907 26.9231 7.72478 26.9342C7.61015 26.9455 7.51656 26.9567 7.44402 26.9676C7.28207 26.9958 7.16761 27.0459 7.10064 27.1184C7.03366 27.1912 7.00009 27.3225 7.00009 27.5123V32.6056C7.00009 32.7956 7.03488 32.9268 7.10481 32.9993C7.17457 33.072 7.2932 33.1221 7.46089 33.1501C7.54457 33.1668 7.64511 33.1807 7.76236 33.192C7.8796 33.2032 8.00659 33.2129 8.14349 33.2213C8.28039 33.2296 8.42129 33.2366 8.56654 33.2423C8.71179 33.2477 8.85409 33.2507 8.99377 33.2507C9.35681 33.2507 9.69881 33.2227 10.0201 33.1668C10.341 33.1111 10.6202 33.0118 10.8577 32.8694C11.0951 32.7271 11.2835 32.5343 11.4232 32.2915C11.5627 32.0485 11.6326 31.7427 11.6326 31.374V31.2485ZM10.2085 28.8442C10.2085 28.9337 10.1946 29.0189 10.1666 29.0998C10.1386 29.1807 10.0926 29.2504 10.0284 29.3094C9.96409 29.3678 9.87763 29.4153 9.76874 29.4515C9.65984 29.4879 9.52155 29.506 9.35403 29.506H8.4159V28.0568C8.44373 28.0568 8.48705 28.0555 8.54567 28.0526C8.60429 28.0498 8.6657 28.0484 8.72989 28.0484H9.05239C9.48241 28.0484 9.78265 28.1029 9.95295 28.2117C10.1233 28.3206 10.2085 28.4896 10.2085 28.7185V28.8442ZM9.99487 31.8851C10.1596 31.7567 10.2421 31.5751 10.2421 31.3406V31.2485C10.2421 31.0474 10.1777 30.8729 10.0493 30.7249C9.92077 30.577 9.68906 30.5029 9.35403 30.5029H8.4159V32.0693H8.56237C8.62656 32.0693 8.69353 32.0711 8.76346 32.0737C8.83321 32.0765 8.90019 32.078 8.96455 32.078H9.10267C9.53268 32.078 9.83014 32.0137 9.99487 31.8851ZM16.2233 30.017C16.2233 29.71 16.1772 29.4487 16.085 29.2337C15.993 29.0189 15.863 28.8429 15.6955 28.7059C15.528 28.5692 15.3227 28.4689 15.0797 28.4045C14.8369 28.3403 14.5646 28.3081 14.263 28.3081C13.9836 28.3081 13.7114 28.3278 13.4463 28.3669C13.1808 28.4059 12.97 28.445 12.8138 28.484C12.7077 28.5122 12.6546 28.5734 12.6546 28.6682V29.3468C12.6546 29.4028 12.6685 29.4419 12.6965 29.464C12.7244 29.4865 12.7606 29.4978 12.8054 29.4978H12.8472C12.9143 29.492 12.998 29.4851 13.0986 29.4767C13.1991 29.4684 13.3122 29.4616 13.4379 29.4557C13.5635 29.4503 13.6947 29.4461 13.8316 29.4432C13.9683 29.4404 14.1038 29.439 14.2379 29.439C14.4333 29.439 14.5869 29.4753 14.6986 29.5479C14.8103 29.6206 14.8661 29.777 14.8661 30.017V30.3187H14.4138C13.6933 30.3187 13.1697 30.4317 12.843 30.6579C12.5163 30.884 12.353 31.2429 12.353 31.7343V31.81C12.353 32.0834 12.3935 32.3124 12.4744 32.4966C12.5553 32.681 12.663 32.829 12.7969 32.9408C12.931 33.0524 13.0831 33.132 13.2535 33.1793C13.4238 33.2268 13.6013 33.2507 13.7855 33.2507C14.0369 33.2507 14.2533 33.2171 14.4347 33.1501C14.6161 33.0831 14.7878 32.9909 14.9499 32.8737V33.0076C14.9499 33.0524 14.9666 33.0915 15.0002 33.1249C15.0338 33.1585 15.0728 33.1752 15.1175 33.1752H16.0558C16.1003 33.1752 16.1394 33.1585 16.173 33.1249C16.2066 33.0915 16.2233 33.0524 16.2233 33.0076V30.017ZM14.5688 32.1741C14.6831 32.1379 14.7908 32.0946 14.8913 32.0443V31.1229H14.4138C14.2686 31.1229 14.1485 31.1354 14.0536 31.1604C13.9586 31.1857 13.8831 31.2234 13.8274 31.2737C13.7716 31.3238 13.7324 31.3881 13.7102 31.4662C13.6877 31.5445 13.6766 31.6338 13.6766 31.7343V31.81C13.6766 31.9885 13.7197 32.1029 13.8064 32.1532C13.893 32.2035 14.0256 32.2285 14.2044 32.2285C14.3328 32.2285 14.4542 32.2106 14.5688 32.1741ZM21.35 32.9993V30.2096C21.35 29.9475 21.3292 29.7001 21.2872 29.4684C21.2453 29.2369 21.17 29.0356 21.0611 28.8651C20.9522 28.6948 20.8014 28.5593 20.6086 28.4589C20.4161 28.3584 20.1689 28.3081 19.8673 28.3081C19.5992 28.3081 19.3617 28.3405 19.1553 28.4052C18.9486 28.4699 18.7308 28.5838 18.5019 28.747V28.544C18.5019 28.4991 18.485 28.4596 18.4516 28.4259C18.4181 28.3921 18.3789 28.3751 18.3342 28.3751H17.3961C17.3512 28.3751 17.3122 28.3918 17.2788 28.4254C17.2453 28.4589 17.2286 28.4981 17.2286 28.5426V32.9993C17.2286 33.044 17.2465 33.0845 17.283 33.1207C17.3192 33.1571 17.3597 33.1752 17.4044 33.1752H18.4181C18.4628 33.1752 18.5019 33.1571 18.5353 33.1209C18.5689 33.0847 18.5856 33.0443 18.5856 32.9996V29.7064C18.7308 29.6284 18.8675 29.5644 18.9961 29.5143C19.1245 29.464 19.2501 29.439 19.3731 29.439C19.5014 29.439 19.6062 29.4515 19.6872 29.4767C19.7681 29.5018 19.8309 29.5449 19.8756 29.6065C19.9203 29.6676 19.9511 29.7483 19.9678 29.8485C19.9845 29.9488 19.993 30.0715 19.993 30.2164V32.9996C19.993 33.0443 20.0097 33.0847 20.0433 33.1209C20.0767 33.1571 20.1157 33.1752 20.1605 33.1752H21.1742C21.2187 33.1752 21.2592 33.1571 21.2956 33.1207C21.3319 33.0845 21.35 33.044 21.35 32.9993ZM25.4717 32.1869V32.9323C25.4717 32.9937 25.4576 33.037 25.4298 33.0621C25.4018 33.0873 25.3571 33.1082 25.2957 33.1249C25.1784 33.1529 25.0262 33.1807 24.8392 33.2089C24.652 33.2366 24.4328 33.2507 24.1815 33.2507C23.5895 33.2507 23.1162 33.0692 22.7617 32.706C22.407 32.3431 22.2297 31.8182 22.2297 31.1312V30.4276C22.2297 29.7406 22.407 29.2156 22.7617 28.8528C23.1162 28.4896 23.5895 28.3081 24.1815 28.3081C24.4328 28.3081 24.652 28.322 24.8392 28.3499C25.0262 28.378 25.1784 28.4059 25.2957 28.4337C25.3571 28.4504 25.4018 28.4715 25.4298 28.4965C25.4576 28.5217 25.4717 28.565 25.4717 28.6265V29.372C25.4717 29.4167 25.4562 29.4515 25.4256 29.4767C25.3948 29.5018 25.3571 29.5143 25.3125 29.5143H25.2957C25.1393 29.4978 24.99 29.4837 24.8475 29.4726C24.7051 29.4616 24.5137 29.4557 24.2737 29.4557C24.1787 29.4557 24.0895 29.4712 24.0056 29.5018C23.9218 29.5326 23.8492 29.5856 23.7878 29.661C23.7262 29.7364 23.6775 29.8368 23.6412 29.9626C23.6048 30.0882 23.5867 30.2432 23.5867 30.4276V31.1312C23.5867 31.3154 23.6048 31.4704 23.6412 31.5962C23.6775 31.7218 23.7262 31.8223 23.7878 31.8976C23.8492 31.9731 23.9218 32.0262 24.0056 32.0568C24.0895 32.0876 24.1787 32.1029 24.2737 32.1029C24.5137 32.1029 24.7051 32.0973 24.8475 32.0862C24.99 32.0751 25.1393 32.061 25.2957 32.0443H25.3125C25.3571 32.0443 25.3948 32.0568 25.4256 32.082C25.4562 32.1073 25.4717 32.1421 25.4717 32.1869ZM30.1211 30.4862C30.1211 30.151 30.0748 29.8495 29.9825 29.5815C29.8901 29.3134 29.7558 29.0859 29.5796 28.8987C29.4034 28.7117 29.1851 28.5664 28.925 28.4631C28.6648 28.36 28.3638 28.3081 28.0225 28.3081C27.6812 28.3081 27.3805 28.36 27.1202 28.4631C26.86 28.5664 26.6403 28.7117 26.4613 28.8987C26.2821 29.0859 26.1465 29.3134 26.0543 29.5815C25.9617 29.8495 25.9156 30.151 25.9156 30.4862V31.0726C25.9156 31.4076 25.9617 31.7093 26.0543 31.9773C26.1465 32.2454 26.2821 32.4729 26.4613 32.6601C26.6403 32.8473 26.86 32.9923 27.1202 33.0957C27.3805 33.1988 27.6812 33.2507 28.0225 33.2507C28.3638 33.2507 28.6648 33.1988 28.925 33.0957C29.1851 32.9923 29.4034 32.8473 29.5796 32.6601C29.7558 32.4729 29.8901 32.2454 29.9825 31.9773C30.0748 31.7093 30.1211 31.4076 30.1211 31.0726V30.4862ZM28.0225 32.1029C28.5167 32.1029 28.7639 31.7595 28.7639 31.0726V30.4862C28.7639 29.8048 28.5167 29.464 28.0225 29.464C27.7781 29.464 27.5922 29.5493 27.4645 29.7196C27.3366 29.8901 27.2728 30.1456 27.2728 30.4862V31.0726C27.2728 31.4132 27.3366 31.6701 27.4645 31.8432C27.5922 32.0165 27.7781 32.1029 28.0225 32.1029ZM35.1054 32.9993V30.2096C35.1054 29.9475 35.0842 29.7001 35.0426 29.4684C35.0007 29.2369 34.9252 29.0356 34.8161 28.8651C34.7072 28.6948 34.5566 28.5593 34.364 28.4589C34.1713 28.3584 33.9241 28.3081 33.6226 28.3081C33.3546 28.3081 33.1171 28.3405 32.9105 28.4052C32.7038 28.4699 32.486 28.5838 32.2571 28.747V28.544C32.2571 28.4991 32.2404 28.4596 32.2066 28.4259C32.1734 28.3921 32.1341 28.3751 32.0896 28.3751H31.1513C31.1066 28.3751 31.0676 28.3918 31.034 28.4254C31.0006 28.4589 30.9838 28.4981 30.9838 28.5426V32.9993C30.9838 33.044 31.0018 33.0845 31.0382 33.1207C31.0746 33.1571 31.1149 33.1752 31.1598 33.1752H32.1734C32.218 33.1752 32.2571 33.1571 32.2907 33.1209C32.3241 33.0847 32.3409 33.0443 32.3409 32.9996V29.7064C32.486 29.6284 32.6229 29.5644 32.7513 29.5143C32.8798 29.464 33.0054 29.439 33.1284 29.439C33.2568 29.439 33.3615 29.4515 33.4424 29.4767C33.5233 29.5018 33.5863 29.5449 33.631 29.6065C33.6757 29.6676 33.7063 29.7483 33.7232 29.8485C33.7399 29.9488 33.7482 30.0715 33.7482 30.2164V32.9996C33.7482 33.0443 33.7649 33.0847 33.7985 33.1209C33.8321 33.1571 33.871 33.1752 33.9157 33.1752H34.9294C34.9741 33.1752 35.0146 33.1571 35.051 33.1207C35.0871 33.0845 35.1054 33.044 35.1054 32.9993ZM38.7579 32.3698V33.0181C38.7579 33.1122 38.7049 33.1677 38.5987 33.184C38.4702 33.2063 38.3585 33.2228 38.2637 33.234C38.1687 33.2451 38.0597 33.2507 37.937 33.2507C37.7091 33.2507 37.5079 33.2324 37.3331 33.1962C37.1582 33.1599 37.0123 33.0887 36.8957 32.9826C36.7794 32.8765 36.6905 32.7298 36.6294 32.5427C36.5685 32.3557 36.5379 32.1144 36.5379 31.8182V29.3889L35.8678 29.2798C35.823 29.2687 35.7826 29.2478 35.7463 29.217C35.7099 29.1864 35.6918 29.1487 35.6918 29.104V28.551C35.6918 28.5064 35.7099 28.4659 35.7463 28.4295C35.7826 28.3934 35.823 28.3751 35.8678 28.3751H36.5379V27.6881C36.5379 27.6434 36.5546 27.6073 36.5878 27.5793C36.6209 27.5514 36.66 27.5319 36.7046 27.5206L37.7203 27.3449H37.7452C37.7895 27.3449 37.8257 27.3573 37.8535 27.3823C37.8812 27.4076 37.8951 27.4425 37.8951 27.4871V28.3751H38.582C38.6266 28.3751 38.6657 28.392 38.6993 28.4257C38.7329 28.4595 38.7496 28.4991 38.7496 28.544V29.2282C38.7496 29.2734 38.7329 29.3127 38.6993 29.3464C38.6657 29.3802 38.6266 29.3971 38.582 29.3971H37.8951V31.8349C37.8951 32.0024 37.909 32.11 37.937 32.1574C37.9649 32.2048 38.043 32.2285 38.1713 32.2285H38.582C38.6993 32.2285 38.7579 32.2756 38.7579 32.3698ZM43.2311 30.017C43.2311 29.71 43.1852 29.4487 43.0928 29.2337C43.0008 29.0189 42.871 28.8429 42.7035 28.7059C42.536 28.5692 42.3307 28.4689 42.0877 28.4045C41.8449 28.3403 41.5727 28.3081 41.271 28.3081C40.9915 28.3081 40.7194 28.3278 40.4543 28.3669C40.1889 28.4059 39.978 28.445 39.8218 28.484C39.7154 28.5122 39.6626 28.5734 39.6626 28.6682V29.3468C39.6626 29.4028 39.6764 29.4419 39.7044 29.464C39.7324 29.4865 39.7686 29.4978 39.8133 29.4978H39.8552C39.9224 29.492 40.006 29.4851 40.1066 29.4767C40.2071 29.4684 40.3202 29.4616 40.4458 29.4557C40.5715 29.4503 40.7027 29.4461 40.8396 29.4432C40.9763 29.4404 41.1119 29.439 41.2458 29.439C41.4413 29.439 41.5949 29.4753 41.7066 29.5479C41.8183 29.6206 41.8741 29.777 41.8741 30.017V30.3187H41.4218C40.7011 30.3187 40.1777 30.4317 39.851 30.6579C39.5243 30.884 39.361 31.2429 39.361 31.7343V31.81C39.361 32.0834 39.4014 32.3124 39.4824 32.4966C39.5631 32.681 39.671 32.829 39.8049 32.9408C39.9391 33.0524 40.0911 33.132 40.2616 33.1793C40.4319 33.2268 40.6091 33.2507 40.7935 33.2507C41.0449 33.2507 41.2611 33.2171 41.4427 33.1501C41.6241 33.0831 41.7957 32.9909 41.958 32.8737V33.0076C41.958 33.0524 41.9747 33.0915 42.0082 33.1249C42.0416 33.1585 42.0808 33.1752 42.1255 33.1752H43.0638C43.1083 33.1752 43.1475 33.1585 43.181 33.1249C43.2144 33.0915 43.2311 33.0524 43.2311 33.0076V30.017ZM41.5768 32.1741C41.6911 32.1379 41.7988 32.0946 41.8993 32.0443V31.1229H41.4218C41.2766 31.1229 41.1566 31.1354 41.0616 31.1604C40.9666 31.1857 40.8911 31.2234 40.8354 31.2737C40.7794 31.3238 40.7403 31.3881 40.7182 31.4662C40.6958 31.5445 40.6846 31.6338 40.6846 31.7343V31.81C40.6846 31.9885 40.7278 32.1029 40.8144 32.1532C40.901 32.2035 41.0336 32.2285 41.2124 32.2285C41.3408 32.2285 41.462 32.2106 41.5768 32.1741ZM47.3528 32.9323V32.1869C47.3528 32.1421 47.3373 32.1073 47.3067 32.082C47.2759 32.0568 47.2383 32.0443 47.1936 32.0443H47.1769C47.0205 32.061 46.8711 32.0751 46.7286 32.0862C46.5863 32.0973 46.395 32.1029 46.1549 32.1029C46.0598 32.1029 45.9704 32.0876 45.8869 32.0568C45.803 32.0262 45.7303 31.9731 45.6689 31.8976C45.6075 31.8223 45.5586 31.7218 45.5224 31.5962C45.4859 31.4704 45.468 31.3154 45.468 31.1312V30.4276C45.468 30.2432 45.4859 30.0882 45.5224 29.9626C45.5586 29.8368 45.6075 29.7364 45.6689 29.661C45.7303 29.5856 45.803 29.5326 45.8869 29.5018C45.9704 29.4712 46.0598 29.4557 46.1549 29.4557C46.395 29.4557 46.5863 29.4616 46.7286 29.4726C46.8711 29.4837 47.0205 29.4978 47.1769 29.5143H47.1936C47.2383 29.5143 47.2759 29.5018 47.3067 29.4767C47.3373 29.4515 47.3528 29.4167 47.3528 29.372V28.6265C47.3528 28.565 47.3389 28.5217 47.3109 28.4965C47.2827 28.4715 47.2383 28.4504 47.1769 28.4337C47.0597 28.4059 46.9073 28.378 46.7203 28.3499C46.5331 28.322 46.3141 28.3081 46.0627 28.3081C45.4704 28.3081 44.9974 28.4896 44.6428 28.8528C44.2881 29.2156 44.1108 29.7406 44.1108 30.4276V31.1312C44.1108 31.8182 44.2881 32.3431 44.6428 32.706C44.9974 33.0692 45.4704 33.2507 46.0627 33.2507C46.3141 33.2507 46.5331 33.2366 46.7203 33.2089C46.9073 33.1807 47.0597 33.1529 47.1769 33.1249C47.2383 33.1082 47.2827 33.0873 47.3109 33.0621C47.3389 33.037 47.3528 32.9937 47.3528 32.9323ZM50.9634 32.3698V33.0181C50.9634 33.1122 50.9101 33.1677 50.8042 33.184C50.6756 33.2063 50.564 33.2228 50.4692 33.234C50.374 33.2451 50.2651 33.2507 50.1425 33.2507C49.9146 33.2507 49.7133 33.2324 49.5385 33.1962C49.3635 33.1599 49.2177 33.0887 49.1014 32.9826C48.9848 32.8765 48.8959 32.7298 48.8349 32.5427C48.774 32.3557 48.7434 32.1144 48.7434 31.8182V29.3889L48.0733 29.2798C48.0284 29.2687 47.9881 29.2478 47.9517 29.217C47.9153 29.1864 47.8973 29.1487 47.8973 29.104V28.551C47.8973 28.5064 47.9153 28.4659 47.9517 28.4295C47.9881 28.3934 48.0284 28.3751 48.0733 28.3751H48.7434V27.6881C48.7434 27.6434 48.7601 27.6073 48.7933 27.5793C48.8263 27.5514 48.8653 27.5319 48.9098 27.5206L49.9255 27.3449H49.9506C49.995 27.3449 50.0311 27.3573 50.0586 27.3823C50.0866 27.4076 50.1005 27.4425 50.1005 27.4871V28.3751H50.7875C50.832 28.3751 50.8712 28.392 50.9047 28.4257C50.9381 28.4595 50.955 28.4991 50.955 28.544V29.2282C50.955 29.2734 50.9381 29.3127 50.9047 29.3464C50.8712 29.3802 50.832 29.3971 50.7875 29.3971H50.1005V31.8349C50.1005 32.0024 50.1145 32.11 50.1425 32.1574C50.1703 32.2048 50.2484 32.2285 50.377 32.2285H50.7875C50.9047 32.2285 50.9634 32.2756 50.9634 32.3698Z" fill="#005697"/>
</svg>

<svg width="58" height="40" fill="none" xmlns="http://www.w3.org/2000/svg"><rect x=".5" y=".5" width="57" height="39" rx="3.5" fill="#fff" stroke="#F3F3F3"/><path d="M46.173 10.754h-13.61l-1.384 1.559-4.491 5.056-1.385 1.559h-13.43l1.363-1.578.645-.747 1.363-1.578H9.056c-1.13 0-2.056.948-2.056 2.108v4.447c0 1.16.925 2.108 2.056 2.108h23.69c1.131 0 2.676-.704 3.433-1.566l3.583-4.076 6.411-7.292Z" fill="#005697"/><path d="M48.908 6c1.13 0 2.055.949 2.055 2.108v4.447c0 1.16-.925 2.108-2.055 2.108H42.74l1.375-1.566.683-.777 1.375-1.566h-13.61l-7.26 8.18H11.79l9.691-10.958.367-.415C22.608 6.703 24.154 6 25.285 6h23.623Z" fill="#FBD500"/><path fill-rule="evenodd" clip-rule="evenodd" d="M11.633 31.248c0-.29-.069-.541-.206-.754a1.353 1.353 0 0 0-.54-.485c.223-.112.396-.277.52-.495a1.48 1.48 0 0 0 .184-.737v-.15c0-.336-.064-.615-.193-.838a1.444 1.444 0 0 0-.54-.536 2.57 2.57 0 0 0-.834-.29 6.087 6.087 0 0 0-1.08-.087c-.134 0-.274.002-.42.008a24.54 24.54 0 0 0-.422.02l-.377.03a5.754 5.754 0 0 0-.281.034c-.162.028-.276.078-.343.15-.067.073-.1.205-.1.394v5.094c0 .19.034.32.104.393.07.073.188.123.356.151.084.017.184.03.301.042.118.011.245.02.381.03a17.554 17.554 0 0 0 .851.029 5.97 5.97 0 0 0 1.026-.084c.321-.056.6-.155.838-.298.237-.142.425-.335.565-.578.14-.242.21-.548.21-.917v-.125Zm-1.424-2.404c0 .09-.014.175-.042.256a.505.505 0 0 1-.139.21.719.719 0 0 1-.26.142 1.33 1.33 0 0 1-.414.054h-.938v-1.45c.028 0 .071 0 .13-.003a3.57 3.57 0 0 1 .184-.005h.322c.43 0 .73.055.9.164.171.109.257.278.257.506v.126Zm-.214 3.041c.165-.128.247-.31.247-.544v-.093a.773.773 0 0 0-.193-.523c-.128-.148-.36-.222-.695-.222h-.938v1.566h.146c.065 0 .132.002.201.005.07.003.137.004.202.004h.138c.43 0 .727-.064.892-.193Zm6.228-1.868c0-.307-.046-.568-.138-.783a1.36 1.36 0 0 0-.39-.528 1.613 1.613 0 0 0-.615-.302 3.197 3.197 0 0 0-.817-.096c-.28 0-.552.02-.817.059a6.827 6.827 0 0 0-.632.117c-.106.028-.16.09-.16.184v.679c0 .056.014.095.043.117a.168.168 0 0 0 .108.034h.042l.252-.021c.1-.009.213-.015.339-.021a18.093 18.093 0 0 1 .8-.017c.195 0 .349.036.46.109.112.073.168.229.168.469v.302h-.452c-.72 0-1.244.113-1.571.339-.327.226-.49.585-.49 1.076v.076c0 .273.04.502.121.687.081.184.189.332.323.444.134.111.286.191.457.238.17.048.347.072.532.072.25 0 .467-.034.649-.1.181-.068.353-.16.515-.277v.134a.16.16 0 0 0 .05.117.16.16 0 0 0 .117.05h.939a.16.16 0 0 0 .117-.05.16.16 0 0 0 .05-.117v-2.991Zm-1.654 2.157c.114-.036.222-.08.322-.13v-.921h-.477c-.145 0-.265.012-.36.037a.539.539 0 0 0-.227.114.4.4 0 0 0-.117.192.972.972 0 0 0-.033.268v.076c0 .178.043.293.13.343.086.05.219.075.397.075.129 0 .25-.017.365-.054ZM21.35 33v-2.79c0-.261-.02-.509-.063-.74a1.658 1.658 0 0 0-.226-.604 1.16 1.16 0 0 0-.452-.406c-.193-.1-.44-.15-.742-.15-.268 0-.505.031-.712.096a2.358 2.358 0 0 0-.653.342v-.203a.163.163 0 0 0-.05-.118.16.16 0 0 0-.118-.05h-.938a.16.16 0 0 0-.117.05.16.16 0 0 0-.05.117V33a.17.17 0 0 0 .054.122.168.168 0 0 0 .121.054h1.014a.155.155 0 0 0 .117-.054.174.174 0 0 0 .05-.121v-3.294a3.77 3.77 0 0 1 .411-.192c.129-.05.254-.075.377-.075.128 0 .233.012.314.038a.354.354 0 0 1 .189.13.562.562 0 0 1 .092.242c.017.1.025.223.025.367V33c0 .044.017.085.05.12a.155.155 0 0 0 .117.055h1.014a.168.168 0 0 0 .122-.054.168.168 0 0 0 .054-.122Zm4.122-.812v.745c0 .062-.014.105-.042.13a.332.332 0 0 1-.134.063 4.549 4.549 0 0 1-1.114.126c-.592 0-1.066-.182-1.42-.545-.355-.363-.532-.888-.532-1.575v-.703c0-.687.177-1.212.532-1.575.354-.363.828-.545 1.42-.545.25 0 .47.014.657.042.187.028.34.056.457.084a.335.335 0 0 1 .134.063c.028.025.042.068.042.13v.745a.13.13 0 0 1-.046.105.173.173 0 0 1-.113.037h-.017a7.795 7.795 0 0 0-1.022-.059.776.776 0 0 0-.268.047.502.502 0 0 0-.218.159.84.84 0 0 0-.147.302c-.036.125-.054.28-.054.465v.703c0 .184.018.34.054.465a.84.84 0 0 0 .147.302.5.5 0 0 0 .218.159.79.79 0 0 0 .268.046 7.758 7.758 0 0 0 1.022-.059h.017c.044 0 .082.013.113.038a.13.13 0 0 1 .046.105Zm4.65-1.7c0-.336-.047-.637-.14-.905a1.87 1.87 0 0 0-.402-.683 1.795 1.795 0 0 0-.655-.436 2.439 2.439 0 0 0-.902-.155c-.342 0-.642.052-.903.155-.26.103-.48.249-.659.436a1.843 1.843 0 0 0-.407.682 2.76 2.76 0 0 0-.138.905v.587c0 .335.046.636.138.904.093.268.228.496.407.683.18.187.399.332.66.436.26.103.56.155.902.155.34 0 .642-.052.902-.155.26-.104.478-.249.655-.436a1.87 1.87 0 0 0 .403-.683c.092-.268.138-.57.138-.904v-.587Zm-2.1 1.616c.495 0 .742-.344.742-1.03v-.587c0-.681-.247-1.022-.741-1.022-.245 0-.43.085-.558.256-.128.17-.192.426-.192.766v.587c0 .34.064.597.192.77.127.174.313.26.558.26Zm7.083.896v-2.79c0-.261-.02-.509-.062-.74a1.654 1.654 0 0 0-.227-.604 1.16 1.16 0 0 0-.452-.406c-.193-.1-.44-.15-.741-.15-.268 0-.506.031-.712.096a2.358 2.358 0 0 0-.654.342v-.203a.162.162 0 0 0-.05-.118.16.16 0 0 0-.117-.05h-.939a.16.16 0 0 0-.117.05.161.161 0 0 0-.05.117V33a.17.17 0 0 0 .054.122.168.168 0 0 0 .122.054h1.013a.156.156 0 0 0 .118-.054.175.175 0 0 0 .05-.121v-3.294a3.76 3.76 0 0 1 .41-.192 1.03 1.03 0 0 1 .377-.075c.129 0 .233.012.314.038a.354.354 0 0 1 .189.13.565.565 0 0 1 .092.242c.017.1.025.223.025.367V33c0 .044.017.085.05.12a.155.155 0 0 0 .118.055h1.013a.168.168 0 0 0 .122-.054.169.169 0 0 0 .054-.122Zm3.653-.63v.65c0 .093-.053.149-.16.165-.128.022-.24.039-.334.05a2.845 2.845 0 0 1-.327.017c-.228 0-.43-.019-.604-.055a.91.91 0 0 1-.437-.213 1.002 1.002 0 0 1-.267-.44 2.387 2.387 0 0 1-.091-.725v-2.43l-.67-.108a.295.295 0 0 1-.122-.063.142.142 0 0 1-.054-.113v-.553c0-.045.018-.085.054-.121a.169.169 0 0 1 .122-.055h.67v-.687c0-.045.017-.08.05-.109a.289.289 0 0 1 .117-.058l1.015-.176h.025c.044 0 .08.012.108.037.028.026.042.06.042.105v.888h.687a.16.16 0 0 1 .117.05c.034.034.05.074.05.119v.684a.162.162 0 0 1-.05.118.16.16 0 0 1-.117.051h-.687v2.438c0 .167.014.275.042.322.028.048.106.072.234.072h.411c.117 0 .176.047.176.14Zm4.473-2.352c0-.307-.046-.568-.138-.783a1.36 1.36 0 0 0-.39-.528 1.613 1.613 0 0 0-.615-.302 3.197 3.197 0 0 0-.817-.096c-.28 0-.552.02-.817.059a6.833 6.833 0 0 0-.632.117c-.107.028-.16.09-.16.184v.679c0 .056.014.095.042.117a.168.168 0 0 0 .11.034h.041l.252-.021c.1-.009.213-.015.339-.021a18.123 18.123 0 0 1 .8-.017c.195 0 .349.036.46.109.112.073.168.229.168.469v.302h-.452c-.72 0-1.244.113-1.571.339-.327.226-.49.585-.49 1.076v.076c0 .273.04.502.121.687.081.184.189.332.323.444.134.111.286.191.457.238.17.048.347.072.532.072.25 0 .467-.034.649-.1a2.15 2.15 0 0 0 .515-.277v.134a.16.16 0 0 0 .05.117.16.16 0 0 0 .117.05h.939a.16.16 0 0 0 .117-.05.16.16 0 0 0 .05-.117v-2.991Zm-1.654 2.157c.114-.036.222-.08.322-.13v-.921h-.477c-.145 0-.265.012-.36.037a.539.539 0 0 0-.227.114.397.397 0 0 0-.117.192.976.976 0 0 0-.033.268v.076c0 .178.043.293.13.343.086.05.219.075.397.075.129 0 .25-.017.365-.054Zm5.776.758v-.745a.129.129 0 0 0-.046-.105.173.173 0 0 0-.113-.038h-.017a7.751 7.751 0 0 1-1.022.059.769.769 0 0 1-.268-.046.5.5 0 0 1-.218-.16.842.842 0 0 1-.147-.3 1.693 1.693 0 0 1-.054-.466v-.703c0-.185.018-.34.054-.465a.842.842 0 0 1 .147-.302.502.502 0 0 1 .218-.16.773.773 0 0 1 .268-.045 7.788 7.788 0 0 1 1.022.058h.017a.173.173 0 0 0 .113-.037.128.128 0 0 0 .046-.105v-.745c0-.062-.014-.105-.042-.13a.336.336 0 0 0-.134-.063 5.768 5.768 0 0 0-.457-.084 4.518 4.518 0 0 0-.657-.042c-.593 0-1.066.182-1.42.545-.355.363-.532.888-.532 1.575v.703c0 .687.177 1.212.532 1.575.354.363.827.545 1.42.545a4.546 4.546 0 0 0 1.114-.126.333.333 0 0 0 .134-.063c.028-.025.042-.068.042-.13Zm3.61-.562v.648c0 .094-.053.15-.159.166a6.33 6.33 0 0 1-.335.05 2.849 2.849 0 0 1-.327.017 3 3 0 0 1-.604-.055.907.907 0 0 1-.437-.213.998.998 0 0 1-.266-.44 2.387 2.387 0 0 1-.092-.725v-2.43l-.67-.108a.296.296 0 0 1-.121-.063.142.142 0 0 1-.055-.113v-.553c0-.045.018-.085.055-.121a.169.169 0 0 1 .121-.055h.67v-.687c0-.045.017-.08.05-.109a.287.287 0 0 1 .117-.058l1.016-.176h.025c.044 0 .08.012.108.037.028.026.041.06.041.105v.888h.688a.16.16 0 0 1 .117.05c.033.034.05.074.05.119v.684a.163.163 0 0 1-.05.118.16.16 0 0 1-.117.051H50.1v2.438c0 .167.014.275.042.322.028.048.106.072.235.072h.41c.118 0 .176.047.176.14Z" fill="#005697"/></svg>
